svgs/thin/megaphone.svg

<svg xmlns="http://www.w3.org/2000/svg" viewBox="0 0 576 512"><!--! Font Awesome Pro 6.0.0-alpha3 by @fontawesome - https://fontawesome.com License - https://fontawesome.com/license (Commercial License) --><path d="M8 160C3.594 160 0 163.6 0 168v176C0 348.4 3.594 352 8 352s8-3.578 8-8v-176C16 163.6 12.41 160 8 160zM544 32h-32c-15.37 0-27.6 11.05-30.69 25.5L53.94 171.5C50.44 172.4 48 175.6 48 179.2c0 5.26 4.986 9.09 10.07 7.735L480 74.42v363.2l-307.7-82.1c-.1016-.0273 .1035 .0234 0 0c-.0938-.0195 .0938 .0195 0 0L58.07 325.1C52.99 323.7 48 327.5 48 332.8c0 3.627 2.438 6.801 5.943 7.734l107.8 28.74C160.1 374.2 160 378.1 160 384c0 52.94 43.06 96 96 96c39.66 0 75.28-25.16 89.37-61.75l135.9 36.25C484.4 468.9 496.6 480 512 480h32c17.67 0 32-14.33 32-32V64C576 46.33 561.7 32 544 32zM256 464c-44.13 0-80-35.89-80-80c0-3.602 .7891-7.055 1.26-10.58l152.6 40.69C317.7 443.8 288.5 464 256 464zM560 448c0 8.824-7.178 16-16 16h-32c-8.822 0-16-7.176-16-16V64c0-8.824 7.178-16 16-16h32c8.822 0 16 7.176 16 16V448z"/></svg>

<svg xmlns="http://www.w3.org/2000/svg" viewBox="0 0 576 512"><!-- Font Awesome Pro 6.0.0-alpha2 by @fontawesome - https://fontawesome.com License - https://fontawesome.com/license (Commercial License) --><path d="M8 160C3.594 160 0 163.578 0 168V344C0 348.422 3.594 352 8 352S16 348.422 16 344V168C16 163.578 12.406 160 8 160ZM544 32H512C496.633 32 484.4 43.055 481.312 57.5L53.943 171.463C50.438 172.396 48 175.57 48 179.197C48 184.457 52.986 188.287 58.068 186.933L480 74.418V437.582L172.615 355.613C172.514 355.586 172.479 355.461 172.375 355.437C172.281 355.418 172.209 355.496 172.115 355.477L58.068 325.067C52.986 323.713 48 327.543 48 332.803C48 336.43 50.438 339.604 53.943 340.537L161.744 369.281C160.988 374.16 160 378.992 160 384C160 436.938 203.062 480 256 480C295.662 480 331.283 454.844 345.367 418.25L481.312 454.5C484.4 468.945 496.633 480 512 480H544C561.673 480 576 465.674 576 448V64C576 46.326 561.673 32 544 32ZM256 464C211.875 464 176 428.109 176 384C176 380.398 176.789 376.945 177.26 373.422L329.859 414.113C317.701 443.762 288.484 464 256 464ZM560 448C560 456.824 552.822 464 544 464H512C503.178 464 496 456.824 496 448V64C496 55.176 503.178 48 512 48H544C552.822 48 560 55.176 560 64V448Z"/></svg>
